svgs/thin/bandage.svg

<svg xmlns="http://www.w3.org/2000/svg" viewBox="0 0 640 512"><!-- Font Awesome Pro 6.0.0-alpha2 by @fontawesome - https://fontawesome.com License - https://fontawesome.com/license (Commercial License) --><path d="M272 320C280.875 320 288 312.863 288 304C288 295.135 280.875 288 272 288S256 295.135 256 304C256 312.863 263.125 320 272 320ZM272 224C280.875 224 288 216.863 288 208C288 199.135 280.875 192 272 192S256 199.135 256 208C256 216.863 263.125 224 272 224ZM368 320C376.875 320 384 312.863 384 304C384 295.135 376.875 288 368 288S352 295.135 352 304C352 312.863 359.125 320 368 320ZM368 224C376.875 224 384 216.863 384 208C384 199.135 376.875 192 368 192S352 199.135 352 208C352 216.863 359.125 224 368 224ZM576 96H64C28.688 96 0 124.703 0 160V352C0 387.297 28.688 416 64 416H576C611.312 416 640 387.297 640 352V160C640 124.703 611.312 96 576 96ZM168 400H64C37.533 400 16 378.467 16 352V160C16 133.533 37.533 112 64 112H168V400ZM456 400H184V112H456V400ZM624 352C624 378.467 602.467 400 576 400H472V112H576C602.467 112 624 133.533 624 160V352Z"/></svg>

<svg xmlns="http://www.w3.org/2000/svg" viewBox="0 0 640 512"><!--! Font Awesome Pro 6.0.0-alpha3 by @fontawesome - https://fontawesome.com License - https://fontawesome.com/license (Commercial License) --><path d="M272 320C280.9 320 288 312.9 288 304C288 295.1 280.9 288 272 288S256 295.1 256 304C256 312.9 263.1 320 272 320zM272 224C280.9 224 288 216.9 288 208C288 199.1 280.9 192 272 192S256 199.1 256 208C256 216.9 263.1 224 272 224zM368 320c8.875 0 16-7.137 16-16C384 295.1 376.9 288 368 288S352 295.1 352 304C352 312.9 359.1 320 368 320zM368 224C376.9 224 384 216.9 384 208C384 199.1 376.9 192 368 192S352 199.1 352 208C352 216.9 359.1 224 368 224zM576 96H64C28.69 96 0 124.7 0 160v192c0 35.3 28.69 64 64 64h512c35.31 0 64-28.7 64-64V160C640 124.7 611.3 96 576 96zM168 400H64c-26.47 0-48-21.53-48-48V160c0-26.47 21.53-48 48-48h104V400zM456 400h-272v-288h272V400zM624 352c0 26.47-21.53 48-48 48h-104v-288H576c26.47 0 48 21.53 48 48V352z"/></svg>
